X:1
T:Title
%%score ( 1 2 ) { 3 | 4 }
L:1/8
Q:1/4=80
M:6/8
K:G
V:1 treble nm="Grand Piano, Soprano"
V:2 treble 
V:3 bass nm="Choir Pad, That Heavenly City"
V:4 bass 
V:1
 [B,D][DB]>[^C_B] [D=B][=CA]<[B,G] | D[CE]>[CF] [CG] [B,D]2 | D[DG]>[DG] [DG][GB][FA] | %3
w: By~L.~O.~Brock * * * * *|||
 G F2- F-[Fd-]>d | [GB][Gd]>[Gd] [Gd][DB][DA] | [DG][EA]<[EG] [CE] [EG]2 | %6
w: |||
 [Gc][GB]>[FA] [DG][DF][DG] | [DA] [DG]2- [DG]2- [DG]/ z/ | D/D<[GB][G_B]/ [G=B]G>[GA] | %9
w: |||
 [GB] [Gc]2 [Gc] [GB]2 | [GB][FA]>[EG] [FA][GB]>[DA] | G F2- F-[Fd-]>d | %12
w: |||
 [Gd][GB]>[GB] [GB][GB]>[GA] | [DG][EG]>[EA] [FB] [Gc]2 | [Gc]/[Gc]<[GB][FA]/ [DG][DF][DG] | %15
w: |||
 [DA] [DG]2- [DG]3- | [DG]3 z3 |] %17
w: ||
V:2
 x6 | x6 | x6 | z A2- A z z | x6 | x6 | x6 | x6 | x6 | x6 | x6 | z A2- A z z | x6 | x6 | x6 | x6 | %16
 x6 |] %17
V:3
 G,G,>G, G,G,<G, | G,G,>G, G, G,2 | B,B,>B, B,[K:treble]DC | B, D2- D2- D/ z/ | %4
 D[K:bass]B,>B, B,G,F, | G,[K:treble]C<C G, C2 | ED>C[K:bass] B,A,B, | C B,2- B,2- B,/ z/ | %8
 B,/B,<[K:treble]D^C/ DB,>=C | D E2 E D2 | DD>D DD>D | ^C D2- D A,2 | B,D>D DD>C | B,B,>C D E2 | %14
 E/E<DC/[K:bass] B,A,B, | C B,2- B,3- | B,3 z3 |] %17
V:4
 G,,G,,>G,, G,,G,,<G,, | B,,C,>C, .E,3 | G,G,>G, G,G,G, | G, D,2- D,2- D,/ z/ | G,G,>G, G,G,,A,, | %5
 B,,C,<C, C, C,2 | C,D,>D, D,D,D, | D, G,,2- G,,2- G,,/ z/ | G,/G,<G,G,/ G,G,>G, | G, C,2 C, G,2 | %10
 G,D,>D, D,G,>F, | E, D,2- D,2- D,/ z/ | G,G,>G, G,G,>G, | G,E,>E, D, C,2 | C,/C,<D,D,/ D,D,D, | %15
 D, G,,2- G,,3- | G,,3 z3 |] %17

